X:1
T:Title
%%score { ( 1 3 ) | ( 2 4 ) }
L:1/8
Q:1/4=100
M:6/8
K:F
V:1 treble nm="Grand Piano"
V:3 treble 
V:2 bass 
V:4 bass 
V:1
 c2 c A<GF | [DB][DB][Fd] c3 | F2 F [FA]2 F | [Ec]6 | c2 c A<GF | [DB]2 [Fd] .[Fc]3 | %6
w: M.~J.~Maxwell * * * *||||||
 [A,CF]2 [A,CF] [CFA]2 [B,EG] | [A,F]6 | [EG][EG][EG] [EG][FA][GB] | d2 c .c3 | ccc c=Bc | %11
w: |||||
[M:7/8] e2 z [Cc]3 z |[M:3/4] AA AA Bc |[M:7/8] def f3 e/d/ |[M:3/4] [Fc]2 F A2 G | F6 |] %16
w: |||||
V:2
 [F,A,F]2 [F,A,F] [F,CF]<[F,B,F][F,A,] | [B,,B,]2 [B,,B,] [F,A,F]3 | %2
 [F,A,]2 [F,A,] [D,A,]2 [D,=B,] | [C,C]6 | [F,A,F]2 [F,A,F] [F,CF]<[F,B,F][F,A,] | %5
 [B,,B,]2 [B,,B,] .[F,A,]3 | B,,2 C, C,2 C, | F,6 | [C,C][C,C][C,C] [C,C][C,C][C,C] | %9
 [F,B,F]2 [F,A,F] .[F,A,F]3 | [F,A,F][F,A,F][F,A,F] [G,E][G,D][G,E] | %11
[M:7/8] [G,G]2 [G,=B,F][K:bass] z z2 G, |[M:3/4] [F,F][F,F][K:treble] [F,F][F,F] [F,G,F][F,A,F] | %13
[M:7/8] FF[B,DF] [B,DF]3[K:bass] B,,/-[B,,B,]/ |[M:3/4] [C,A,]2 [C,A,C] [C,C]2 [C,B,C] | %15
 .[A,C]2 z2 z2 |] %16
V:3
 x6 | x6 | x6 | x6 | x6 | x6 | x6 | x6 | x6 | x6 | x6 |[M:7/8] z A,d E3- [EB] |[M:3/4] x6 | %13
[M:7/8] z z z z z2 F |[M:3/4] x6 | z D D .C3 |] %16
V:4
 x6 | x6 | x6 | x6 | x6 | x6 | x6 | x6 | x6 | x6 | x6 |[M:7/8] z z2[K:bass] C,- C,3 | %12
[M:3/4] x2[K:treble] x4 |[M:7/8] B,2 z z z2[K:bass] .C |[M:3/4] x6 | F,-[F,-B,] [F,-B,] [F,A,]3 |] %16

